X: 1
T: Tillsammans - Brudmarsch   [A]
C: Anders Eriksson
C: arr. Gunnar \"Osterg\aards, Bengt Jonsson
R: march
S: http://spelmanslaget.nu/wp-content/uploads/2011/04/Tillsammans1.pdf
Z: 2020 John Chambers <jc:trillian.mit.edu>
M: 2/4
L: 1/16
K: A
% - - - - - - - - - -
%V: 1 staves=2
(EA)B |\
"A"c2c2 "E"B2AG | "A"A4- A(Ac)e | "F#m"a2a2 "C#m"g2e2 | "D"f6 a2 |\
"A"e3c "E"d3B | "F#m"cBA2 "E"B4 | "A"A2c2 "E"B2AG | "A"A4- A :|
|: zAG |\
"D"F2AF "E"G2BG | "A"A4- A2AG | "D"F2A2 "E"B2dB | "A"c3(B AB)ce |\
"F#m"a2a2 "C#m"g3e | "D"f2ed "A"c3(A | "A"c2)BA "E"B2G2 | "A"A4- A :|
% - - - - - - - - - -
%V: 2
%(CE)G |\
%A2A2 G2EB, | [E4-C4] E(EA)c | f2f2 e2c2 | d6 f2 |\
%c3A B3G | AGF2 G4 | E2A2 G2EB, | [E4-C4] E :|
%|: zEC |\
%D2FE E2GE | [E4-C4] E2EC | D2F2 G2BG | A3(G EG)Ac |\
%f2f2 e3c | d2cB A3(E | A2)GE E2B,2 | [E4-C4] E :|
